X:1
T:Invention 15 in B Minor
T:BWV 786
T:J.S Bach
T:J.S Bach (1685–1750)
T:J.S Bach (1685–1750)
Z:J.S Bach (1685–1750)
%%score { 1 | 2 }
L:1/8
M:4/4
K:D
V:1 treble nm="Piano"
V:2 bass 
V:1
 z B/^A/ BF PGF BF | PFE cE PED/C/ D/E/F/E/ | MF z z/ A/^G/A/ B/c/B/G/ A/B/A/F/ | %3
 ^G/A/G/F/ ^E/G/F/E/ cF/E/ F/A/G/B/ | A/B/c/d/ P^G>F Ff/^e/ fc | Pdc fc PcB ^gB | %6
 PBA/^G/ A/B/A/^E/ Ff/=e/ fc | d/e/d/B/ e/B/f/B/ g/a/g/e/ a/e/b/d/ | %8
 c/d/c/A/ d/A/e/A/ f/g/f/d/ g/d/a/d/ | b/=c'/b/e/ a/b/a/d/ g/a/g/c/ f/g/f/d/ | ePG/F/ Ge Fe Ec | %11
 d z z/ F/E/F/ G/A/G/E/ F/G/F/D/ | E/F/E/D/ C/E/D/C/ DA d/c/B/d/ | c/B/A/^G/ AE PFE AE | %14
 PED BD PDC/B,/ C/^D/E/D/ | A/(F/G/A/) (^G/^A/B/A/) (e/c/d/e/) (^d/^e/f/e/) | %16
 (b/^g/a/B/) (c/^d/=e/)d/ (a/f/=g/)A/ (B/c/=d/c/) | g/e/f/c/ d/e/f/d/ e/f/e/c/ d/e/d/B/ | %18
 c/d/c/B/ ^A/B/c/A/ FB/A/ BF | PGF BF PFE cE | PED/C/ D/F/E/G/ F>d P^A>B | !fermata!B8 |] %22
V:2
 B,, z D, z E, z D, z | C, z ^A,, z B,, z G,, z | F,,F,/^E,/ F,C, PD,C, F,C, | %3
 PC,B,, ^G,B,, PB,,A,,/^G,,/ A,,B,, | C,B,,C,C,, F,,>^G,, A,,/B,,/G,,/A,,/ | %5
 B,,/C,/B,,/^G,,/ A,,/B,,/A,,/F,,/ G,,/A,,/G,,/F,,/ ^E,,/G,,/F,,/E,,/ | %6
 F,,F,/^E,/ F,C, D,D/C/ D/=E/D/^A,/ | B,=A,G,F, E,E,,F,,G,, | A,,G,F,E, D,D,,E,,F,, | %9
 G,,G,F,B, E,A,D,D- | D/E/D/B,/ C/D/C/A,/ D/C/B,/A,/ G,/F,/G,/A,/ | D,D/C/ DA, PB,A, DA, | %12
 PA,G, EG, PG,F,/E,/ F,/^G,/A,/G,/ | A,E, D,/C,/B,,/A,,/ D,/E,/D,/B,,/ C,/D,/C,/A,,/ | %14
 B,,/C,/B,,/A,,/ ^G,,/B,,/A,,/G,,/ A,,A,=G,F, | E,EDC B,B,,A,,^G,, | %16
 F,,F,/=G,/ A,B, E,E,,/F,,/ G,,A,, | D,,B,/^A,/ B,F, PG,F, B,F, | %18
 F,E, CE, PE,D,/C,/ D,/B,,/C,/D,/ | E,/F,/E,/C,/ D,/E,/D,/B,,/ C,/D,/C,/B,,/ ^A,,/C,/B,,/A,,/ | %20
 B,,B,/^A,/ B,G, D,/F,/E,/G,/ F,F,, | !fermata!B,,8 |] %22

